src/assets/icon-list.svg

<?xml version="1.0" encoding="UTF-8"?>
<svg width="16px" height="14px" viewBox="0 0 16 14" version="1.1" xmlns="http://www.w3.org/2000/svg" xmlns:xlink="http://www.w3.org/1999/xlink">
    <title>icon_说明</title>
    <g id="页面-1" stroke="none" stroke-width="1" fill="none" fill-rule="evenodd">
        <g id="藏品展示-3D" transform="translate(-32.000000, -775.000000)" fill="#FFFFFF" fill-rule="nonzero">
            <g id="编组-3" transform="translate(16.000000, 666.000000)">
                <g id="编组-9" transform="translate(16.000000, 104.000000)">
                    <g id="icon_说明" transform="translate(0.000000, 5.000000)">
                        <path d="M4.5,0.5 L15.5,0.5 C15.7761424,0.5 16,0.723857625 16,1 C16,1.27614237 15.7761424,1.5 15.5,1.5 L4.5,1.5 C4.22385763,1.5 4,1.27614237 4,1 C4,0.723857625 4.22385763,0.5 4.5,0.5 Z M4.5,6.5 L15.5,6.5 C15.7761424,6.5 16,6.72385763 16,7 C16,7.27614237 15.7761424,7.5 15.5,7.5 L4.5,7.5 C4.22385763,7.5 4,7.27614237 4,7 C4,6.72385763 4.22385763,6.5 4.5,6.5 Z M4.5,12.5 L15.5,12.5 C15.7761424,12.5 16,12.7238576 16,13 C16,13.2761424 15.7761424,13.5 15.5,13.5 L4.5,13.5 C4.22385763,13.5 4,13.2761424 4,13 C4,12.7238576 4.22385763,12.5 4.5,12.5 Z M1,14 C0.447852761,14 0,13.5521472 0,13 C0,12.4478528 0.447852761,12 1,12 C1.55214724,12 2,12.4478528 2,13 C2,13.5521472 1.55214724,14 1,14 Z M1,8 C0.447852761,8 0,7.55214724 0,7 C0,6.44785276 0.447852761,6 1,6 C1.55214724,6 2,6.44785276 2,7 C2,7.55214724 1.55214724,8 1,8 Z M1,2 C0.447852761,2 0,1.55180353 0,0.99923254 C0,0.44666155 0.447852761,0 1,0 C1.55214724,0 2,0.44819647 2,1.00076746 C2,1.55333845 1.55214724,2 1,2 L1,2 Z" id="形状"></path>
                    </g>
                </g>
            </g>
        </g>
    </g>
</svg>

<svg xmlns="http://www.w3.org/2000/svg" width="16" height="14" xmlns:v="https://vecta.io/nano"><path d="M4.5.5h11a.5.5 0 1 1 0 1h-11a.5.5 0 1 1 0-1zm0 6h11a.5.5 0 1 1 0 1h-11a.5.5 0 1 1 0-1zm0 6h11a.5.5 0 1 1 0 1h-11a.5.5 0 1 1 0-1zM1 14a1 1 0 1 1 0-2 1 1 0 1 1 0 2zm0-6a1 1 0 1 1 0-2 1 1 0 1 1 0 2zm0-6A1 1 0 0 1 0 .999 1 1 0 0 1 1 0a1 1 0 0 1 1 1.001A1 1 0 0 1 1 2h0z" fill="#fff"/></svg>
